X:1
T:Op.52
T:Ellens Gesang III, D.839 (Ave Maria)
T:Der Gräfin Sophie von Weissenwolf gewidmet
T:Op.52, No.6, D.839
T:Franz Schubert
T:Ellens Gesang III (from Walter Scott's "The Lady of the Lake") 
T:German text by Adam Storck
T:Creative Commons copyright waiver (CC0 1.0 Universal)
T:Creative Commons copyright waiver (CC0 1.0 Universal)
C:Franz Schubert
Z:Sir Walter Scott (from "The Lady of the Lake")
Z:Creative Commons copyright waiver (CC0 1.0 Universal)
%%score 1 { 2 | 3 }
L:1/8
Q:1/4=52
M:4/4
K:Bb
V:1 treble nm="Singstimme\nVoice"
V:2 treble nm="Pianoforte"
V:3 bass 
V:1
"^Sehr langsam" z8 | z8 |: B3 A/ B/ (d7/2 c/) | B2 z2 (c2{dc} B/A/) (G/A/) | %4
w: ||A- ve Ma- ri- *|a! Jung- * * frau *|
w: ||A- ve Ma- ri- *|a! un- * * be- *|
w: ||A- ve Ma- ri- *|a! Rei- * * ne _|
 B2 z d d3/2 (c/4B/4) A/ G/ d3/4 =e/4 | d2 ^c3/2 A/ =c3/2 B/ (3(A/c/) d/ (3e/c/ A/ | %6
w: mild! Er- hö- re * ei- ner Jung- frau|Fle- hen! Aus die- sem Fel- * sen, starr * und|
w: fleckt! Wenn wir auf * die- sen Fels hin-|sin- ken zum Schlaf. und uns * dein Schutz * be-|
w: Magd! Der Er- de * und der Luft Dä-|mo- nen, von dei- nes Au- * ges Huld * ver-|
 B3 d/c/ c3/2 A/ (3G/=B/ d/ (3f/d/ B/ | c2- (3c/G/A/(3_B/{cB}A/G/ F2 z F | %8
w: wild, soll * mein Ge- bet * zu dir * hin|we- * * * * * * hen. Wir|
w: deckt, wird * weich der har- * te Fels * uns|dün- * * * * * * ken. Du|
w: jagt, sie * kön- nen hier * nicht bei * uns|woh- * * * * * * nen! Wir|
 c3/2 c/ c3/4 =B/4 c3/4 d/4 c/>d/ _B z B | c3/2 c/ (3c/=B/ c/ (3e/d/ c/ _B2 z B | %10
w: schla- fen si- cher bis zum Mor- * gen, ob|Men- schen noch * so grau- * sam sind. O|
w: lä- chelst, Ro- sen- düf- te we- * hen in|die- ser dump- * fen Fel- * sen- gruft. O|
w: woll'n uns still dem Schick- sal beu- * gen, da|uns dein heil'- * ger Trost * an- weht! der|
 c3/2 c/ d3/4 d/4 (3Pd/c/ d/{f} e e z3/2 G/ |{d} c3/2 c/ (3(B/A/) B/ (3(_d/c/) B/ c3 z | %12
w: Jung- frau, sieh' der Jung- * frau Sog- gen o|Mut- ter hör' * ein bit- * tend Kind!|
w: Mut- ter, hö- re Kin- * des Fle- hen, o|Jung- frau, ei- * ne Jung- * frau ruft!|
w: Jung- frau wol- le hold * dich nei- gen, dem|Kind. das für * den Va- * ter fleht!|
 B3 A/ B/ (=d3 c) | B2 z2 z4 | z8 :| z8 | !fermata!z8 |] %17
w: A- ve Ma- ri- *|a!||||
w: A- ve Ma- ri- *|a!||||
w: A- ve Ma- ri- *|a!||||
V:2
!pp! (6:4:6z/ (.[DF]/.[FB]/!>!.[Bd]/.[FB]/.[DF]/) (6:4:6z/ (.[DF]/.[FB]/!>!.[Bd]/.[FB]/.[DF]/) (6:4:6z/!<(! (.[FB]/.[Bd]/!>!.[df]/.[Bd]/.[FB]/) (6:4:6z/ (.[_Ad]/.[df]/!>!.[f_a]/.[df]/.[Ad]/)!<)! | %1
 (6:4:6z/!>(! (.[GB]/.[Be]/!>!.[eg]/.[Be]/.[GB]/) (6:4:6z/ (.[_GA]/.[Ae]/!>!.[e_g]/.[Ae]/!>)!.[GA]/) (6:4:6z/ (.[FB]/.[Bd]/!>!.[df]/.[Bd]/.[FB]/) (6:4:6z/ (.[DF]/.[FB]/!>!.[Bd]/.[FB]/.[DF]/) |: %2
 z8 | z8 | z8 | z8 | z8 | z8 | z8 | z8 | z8 | z8 | z8 | z8 | z8 :| z8 | z8 |] %17
V:3
 [B,,,B,,] z [B,,,B,,] z [B,,,B,,] z [B,,,B,,] z | %1
 [B,,,B,,] z [B,,,B,,] z [B,,,B,,] z [B,,,B,,] z |: z8 | z8 | z8 | z8 | z8 | z8 | z8 | z8 | z8 | %11
 z8 | z8 | z8 | z8 :| z8 | z8 |] %17

